icons/outline/ruler-measure-2.svg

<!--
category: Design
tags: [maths, dimensions, size, width, length, geometry, measure, technical, distance]
unicode: "ff0f"
version: "3.7"
-->
<svg
  xmlns="http://www.w3.org/2000/svg"
  width="24"
  height="24"
  viewBox="0 0 24 24"
  fill="none"
  stroke="currentColor"
  stroke-width="2"
  stroke-linecap="round"
  stroke-linejoin="round"
>
  <path d="M12 19.875c0 .621 -.512 1.125 -1.143 1.125h-5.714a1.134 1.134 0 0 1 -1.143 -1.125v-15.875a1 1 0 0 1 1 -1h5.857c.631 0 1.143 .504 1.143 1.125zm0 -10.875h-2m2 -3h-3m3 6h-3m3 6h-3m3 -3h-2m11 -12h-4m2 0v18m2 0h-4" />
</svg>

<!--
category: Design
tags: [maths, dimensions, size, width, length, geometry, measure, technical, distance]
unicode: "ff0f"
version: "3.7"
-->
<svg
  xmlns="http://www.w3.org/2000/svg"
  width="24"
  height="24"
  viewBox="0 0 24 24"
  fill="none"
  stroke="currentColor"
  stroke-width="2"
  stroke-linecap="round"
  stroke-linejoin="round"
>
    <path d="M12 19.875c0 .621 -.512 1.125 -1.143 1.125h-5.714a1.134 1.134 0 0 1 -1.143 -1.125v-15.875a1 1 0 0 1 1 -1h5.857c.631 0 1.143 .504 1.143 1.125zM12 9h-2M12 6h-3M12 12h-3M12 18h-3M12 15h-2M21 3h-4M19 3v18M21 21h-4" />
</svg>
